svg/24/logo-figma.svg

<svg width="24" height="24" viewBox="0 0 24 24" fill="currentColor" xmlns="http://www.w3.org/2000/svg"><path fill-rule="evenodd" clip-rule="evenodd" d="M6.76303 8.86787C5.74023 8.2014 5.06406 7.04753 5.06406 5.7357C5.06406 3.67253 6.7366 2 8.79976 2H15.2002C17.2634 2 18.9359 3.67253 18.9359 5.7357C18.9359 7.04753 18.2598 8.2014 17.237 8.86787C18.2598 9.53433 18.9359 10.6882 18.9359 12C18.9359 14.0632 17.2634 15.7357 15.2002 15.7357H15.1321C14.1569 15.7357 13.2689 15.362 12.6036 14.7499V18.2302C12.6036 20.3165 10.8944 22 8.8167 22C6.75776 22 5.06406 20.3317 5.06406 18.2643C5.06406 16.9525 5.7402 15.7986 6.76296 15.1322C5.7402 14.4657 5.06406 13.3118 5.06406 12C5.06406 10.6882 5.74023 9.53433 6.76303 8.86787ZM12.6036 12C12.6036 13.3965 13.7357 14.5286 15.1321 14.5286H15.2002C16.5967 14.5286 17.7288 13.3965 17.7288 12C17.7288 10.6035 16.5967 9.47147 15.2002 9.47147H15.1321C13.7357 9.47147 12.6036 10.6035 12.6036 12ZM11.3964 9.47147H8.79976C7.40326 9.47147 6.2712 10.6035 6.2712 12C6.2712 13.3937 7.3987 14.524 8.79126 14.5286H8.79523H11.3964V9.47147ZM8.79976 15.7357C8.79693 15.7357 8.7941 15.7357 8.79126 15.7357C7.3987 15.7403 6.2712 16.8706 6.2712 18.2643C6.2712 19.6566 7.41596 20.7929 8.8167 20.7929C10.2362 20.7929 11.3964 19.6413 11.3964 18.2302V15.7357H8.79976ZM11.3964 8.26427H8.79976C7.40326 8.26427 6.2712 7.1322 6.2712 5.7357C6.2712 4.3392 7.40326 3.20713 8.79976 3.20713H11.3964V8.26427ZM15.2002 8.26427H12.6036V3.20713H15.2002C16.5967 3.20713 17.7288 4.3392 17.7288 5.7357C17.7288 7.1322 16.5967 8.26427 15.2002 8.26427Z"/></svg>

<svg xmlns="http://www.w3.org/2000/svg" width="24" height="24" fill="currentColor" viewBox="0 0 24 24">
  <path fill-rule="evenodd" d="M5.047 5.742A3.742 3.742 0 0 1 8.789 2h6.42a3.742 3.742 0 0 1 2.053 6.871 3.742 3.742 0 0 1-2.053 6.871h-.08a3.728 3.728 0 0 1-2.517-.972v3.448c0 2.094-1.72 3.782-3.803 3.782-2.061 0-3.762-1.67-3.762-3.742a3.74 3.74 0 0 1 1.689-3.129A3.739 3.739 0 0 1 5.046 12a3.74 3.74 0 0 1 1.69-3.129 3.739 3.739 0 0 1-1.69-3.13Zm6.34 3.742H8.788a2.516 2.516 0 0 0-.016 5.032h2.613V9.484ZM12.611 12a2.516 2.516 0 0 0 2.516 2.516h.081a2.516 2.516 0 0 0 0-5.032h-.08A2.516 2.516 0 0 0 12.611 12Zm-3.823 3.742h-.016a2.516 2.516 0 0 0-2.5 2.516c0 1.385 1.141 2.516 2.536 2.516 1.417 0 2.577-1.15 2.577-2.556v-2.476H8.79Zm0-12.516h2.597v5.032H8.79a2.516 2.516 0 1 1 0-5.032Zm3.823 5.032V3.226h2.597a2.516 2.516 0 1 1 0 5.032h-2.597Z" clip-rule="evenodd"/>
</svg>
